X:519
T: ES TRITT DER LENZ ZUR ROSE HIN
N: F0992
O: Europa, Mitteleuropa, Deutschland
R: Natur -, Jahreszeiten - Lied, Fruehling
M: 4/4
L: 1/8
K: A
E2 | A2A2B2B2 | c3BA2
c2 | B2e2^d2B2 | e4z2
E2 | d3cB2B2 | e3dc2
A2 | d2d2e2e2 | f4z2
f2 | e2c2B2e2 | A4z2

@@@ Tune index: 5950
